icons/svgs/briefcase-outline.svg

<svg width="24" height="24" viewBox="0 0 24 24" fill="none" xmlns="http://www.w3.org/2000/svg">
<path d="M8.875 4.1875V5.75H15.125V4.1875C15.125 4.03125 14.9688 3.875 14.8125 3.875H9.1875C8.99219 3.875 8.875 4.03125 8.875 4.1875ZM7 5.75V4.1875C7 3.01562 7.97656 2 9.1875 2H14.8125C15.9844 2 17 3.01562 17 4.1875V5.75H19.5C20.8672 5.75 22 6.88281 22 8.25V12.9375V18.25C22 19.6562 20.8672 20.75 19.5 20.75H4.5C3.09375 20.75 2 19.6562 2 18.25V12.9375V8.25C2 6.88281 3.09375 5.75 4.5 5.75H7ZM3.875 13.875V18.25C3.875 18.6016 4.14844 18.875 4.5 18.875H19.5C19.8125 18.875 20.125 18.6016 20.125 18.25V13.875H14.5V14.5C14.5 15.2031 13.9141 15.75 13.25 15.75H10.75C10.0469 15.75 9.5 15.2031 9.5 14.5V13.875H3.875ZM9.5 12H14.5H20.125V8.25C20.125 7.9375 19.8125 7.625 19.5 7.625H16.0625H7.9375H4.5C4.14844 7.625 3.875 7.9375 3.875 8.25V12H9.5Z" fill="black"/>
</svg>

<svg xmlns="http://www.w3.org/2000/svg" width="24" height="24" fill="currentColor" class="icon-briefcase-outline" viewBox="0 0 24 24">
  <mask id="a" width="20" height="19" x="2" y="2" maskUnits="userSpaceOnUse" style="mask-type:alpha">
    <path d="M8.875 4.188V5.75h6.25V4.188a.336.336 0 0 0-.312-.313H9.186a.31.31 0 0 0-.312.313M7 5.75V4.188C7 3.016 7.977 2 9.188 2h5.624C15.985 2 17 3.016 17 4.188V5.75h2.5c1.367 0 2.5 1.133 2.5 2.5v10c0 1.406-1.133 2.5-2.5 2.5h-15a2.47 2.47 0 0 1-2.5-2.5v-10c0-1.367 1.094-2.5 2.5-2.5zm-3.125 8.125v4.375c0 .352.273.625.625.625h15a.64.64 0 0 0 .625-.625v-4.375H14.5v.625c0 .703-.586 1.25-1.25 1.25h-2.5c-.703 0-1.25-.547-1.25-1.25v-.625zM9.5 12h10.625V8.25c0-.312-.312-.625-.625-.625h-15a.64.64 0 0 0-.625.625V12z"/>
  </mask>
  <g mask="url(#a)">
    <path d="M0 0h24v24H0z"/>
  </g>
</svg>
